X: 218
T:Christus mortuus est
N: Derived from Jos1901-Christus_mortuus_est.krn
C: Josquin des Prez
%%abc-version 2.0
%%abcx-abcm2ps-target-version 5.9.1 (29 Sep 2008)
%%abc-creator hum2abc beta
%%abcx-conversion-date 2019/02/12 16:15:49
%%abc-edited-by Jesse Rodin
%%abc-edited-by Victoria Chang
%%abcx-initial-encoding-date 2011/03/21/
%%humdrum-veritas 1370967882
%%humdrum-veritas-data 3536620853
%%linebreak <none>
%%barnumbers 0
L: 1/4
M: 2/1
Q: 1/2=120
V: 1 clef=treble
V: 2 clef=treble-8
V: 3 clef=treble-8
V: 4 clef=treble-8
V: 5 clef=bass
V: 6 clef=bass
K: F
[V:1] z8 | 
[V:2] c6c2 | 
[V:3] z8 | 
[V:4] z8 | 
[V:5] F,6F,2 | 
[V:6] F,8 | 
[V:1] z8 | 
[V:2] c4c4 | 
[V:3] z8 | 
[V:4] F6F2 | 
[V:5] A,4A,4 | 
[V:6] F,4F,4 | 
[V:1] z8 | 
[V:2] d8 | 
[V:3] z8 | 
[V:4] F4F4 | 
[V:5] A,6D,2 | 
[V:6] D,6B,,2 | 
[V:1] z8 | 
[V:2] d4d4 | 
[V:3] z8 | 
[V:4] B6AG | 
[V:5] F,8 | 
[V:6] B,,4B,,4 | 
[V:1] z8 | 
[V:2] c4c4 | 
[V:3] z8 | 
[V:4] A4G2c2- | 
[V:5] z4G,4- | 
[V:6] F,4E,4 | 
[V:1] z8 | 
[V:2] d8 | 
[V:3] z8 | 
[V:4] c2BAB4 | 
[V:5] G,2F,E,F,4 | 
[V:6] D,8 | 
[V:1] z8 | 
[V:2] e4e2c2- | 
[V:3] c8 | 
[V:4] c4c2A2- | 
[V:5] G,4E,4 | 
[V:6] C,4C,4 | 
[V:1] z8 | 
[V:2] c2BAG2G2 | 
[V:3] c4c4 | 
[V:4] A2GFE4 | 
[V:5] E,2E,2E,4 | 
[V:6] C,2C,2C,4 | 
[V:1] F8 | 
[V:2] B8 | 
[V:3] d8- | 
[V:4] D8- | 
[V:5] F,8- | 
[V:6] B,,8 | 
[V:1] F4F4 | 
[V:2] B4B4 | 
[V:3] d8 | 
[V:4] D8 | 
[V:5] F,8 | 
[V:6] z4B,,4 | 
[V:1] G8- | 
[V:2] G4G2G2 | 
[V:3] c8 | 
[V:4] z8 | 
[V:5] C,4E,4 | 
[V:6] _E,4C,4 | 
[V:1] G8 | 
[V:2] B4B4 | 
[V:3] d8- | 
[V:4] G8 | 
[V:5] D,4D,4 | 
[V:6] G,,4G,,4 | 
[V:1] F8 | 
[V:2] A4F4 | 
[V:3] d8 | 
[V:4] A4B4 | 
[V:5] F,8 | 
[V:6] D,4D,2D,2 | 
[V:1] G8- | 
[V:2] c4c3d | 
[V:3] e8 | 
[V:4] G4G4 | 
[V:5] E,4C,4 | 
[V:6] C,4C,4 | 
[V:1] G8 | 
[V:2] c2f3eed/e/ | 
[V:3] z8 | 
[V:4] G2G2G4 | 
[V:5] C6C2 | 
[V:6] C,4C,4 | 
[V:1] A8 | 
[V:2] f4c4 | 
[V:3] z8 | 
[V:4] F4F4 | 
[V:5] C8 | 
[V:6] F,,8 | 
[V:1] z8 | 
[V:2] c2c4BA | 
[V:3] e8- | 
[V:4] G3AG2c2- | 
[V:5] C,4E,4 | 
[V:6] z4C,4- | 
[V:1] z8 | 
[V:2] G4c4 | 
[V:3] e4e4 | 
[V:4] c2BAG4 | 
[V:5] E,4C,4 | 
[V:6] C,4C,4 | 
[V:1] A8- | 
[V:2] A8 | 
[V:3] f8 | 
[V:4] F8 | 
[V:5] F,6F,2 | 
[V:6] D,4D,4 | 
[V:1] A4A4 | 
[V:2] A8 | 
[V:3] d8- | 
[V:4] z4F4 | 
[V:5] F,4D,4 | 
[V:6] D,8 | 
[V:1] B8 | 
[V:2] G4z4 | 
[V:3] d8 | 
[V:4] G8 | 
[V:5] z4D,4 | 
[V:6] G,,8 | 
[V:1] G8- | 
[V:2] e8 | 
[V:3] c8 | 
[V:4] G4G4 | 
[V:5] E,4E,4 | 
[V:6] z4C,4- | 
[V:1] G8 | 
[V:2] e4e4 | 
[V:3] z8 | 
[V:4] G8 | 
[V:5] E,8 | 
[V:6] C,2C,2C,4 | 
[V:1] F8 | 
[V:2] c8 | 
[V:3] z8 | 
[V:4] A4A4 | 
[V:5] F,4F,4- | 
[V:6] A,,4F,,4 | 
[V:1] z8 | 
[V:2] c6d2 | 
[V:3] z4c4 | 
[V:4] A6A2 | 
[V:5] F,2F,2F,4 | 
[V:6] F,6F,2 | 
[V:1] z8 | 
[V:2] e8 | 
[V:3] c4A4 | 
[V:4] G4c4- | 
[V:5] E,4E,4 | 
[V:6] C,4C,4 | 
[V:1] z4F4 | 
[V:2] z8 | 
[V:3] G4c4- | 
[V:4] c2B2A2G2 | 
[V:5] E,2E,2F,4 | 
[V:6] C,4F,,4- | 
[V:1] F4D4 | 
[V:2] z8 | 
[V:3] c2BAB4 | 
[V:4] F4z4 | 
[V:5] C,4G,4 | 
[V:6] F,,4G,,4 | 
[V:1] C4F4- | 
[V:2] z8 | 
[V:3] c8- | 
[V:4] E4F4 | 
[V:5] C,4C4- | 
[V:6] A,,4F,,4 | 
[V:1] F2EDE4 | 
[V:2] z8 | 
[V:3] c8 | 
[V:4] G8 | 
[V:5] C2C2C4 | 
[V:6] C,8 | 
[V:1] F8- | 
[V:2] c8- | 
[V:3] z8 | 
[V:4] F8 | 
[V:5] A,8 | 
[V:6] F,,4F,4- | 
[V:1] F8 | 
[V:2] c4d4 | 
[V:3] z4B4 | 
[V:4] F4F4 | 
[V:5] A,4B,4 | 
[V:6] F,2E,2D,4 | 
[V:1] z8 | 
[V:2] e8 | 
[V:3] c4c4 | 
[V:4] G8- | 
[V:5] G,2G,4E,2 | 
[V:6] C,4C,4- | 
[V:1] z4E4 | 
[V:2] e4g4 | 
[V:3] c8 | 
[V:4] G4G4 | 
[V:5] E,4E,4 | 
[V:6] C,4C,4 | 
[V:1] F4F4 | 
[V:2] f8 | 
[V:3] d8- | 
[V:4] A8- | 
[V:5] D,8 | 
[V:6] z4F,4 | 
[V:1] F8 | 
[V:2] z4f4 | 
[V:3] d8 | 
[V:4] A8 | 
[V:5] F,4F,4 | 
[V:6] D,4D,2D,2 | 
[V:1] G8- | 
[V:2] e4e2e2- | 
[V:3] c8 | 
[V:4] G6G2 | 
[V:5] C,8 | 
[V:6] E,6C,2- | 
[V:1] G8 | 
[V:2] e2dcd2d2 | 
[V:3] z4B4 | 
[V:4] G4G4 | 
[V:5] z4D,4 | 
[V:6] C,2B,,A,,G,,4 | 
[V:1] F8 | 
[V:2] c6d2 | 
[V:3] c4c4 | 
[V:4] A4A4 | 
[V:5] F,4F,4 | 
[V:6] z8 | 
[V:1] z4E4 | 
[V:2] e8 | 
[V:3] c8- | 
[V:4] G4G4 | 
[V:5] E,2E,2C,4 | 
[V:6] C,6C,2 | 
[V:1] F4F4 | 
[V:2] z4A4 | 
[V:3] c8 | 
[V:4] F8 | 
[V:5] C4C2C2 | 
[V:6] F,,4F,4- | 
[V:1] F8- | 
[V:2] A2A2F4 | 
[V:3] d8- | 
[V:4] z4A4 | 
[V:5] A,4A,2A,2 | 
[V:6] F,4D,4 | 
[V:1] F8 | 
[V:2] F4f4 | 
[V:3] d8 | 
[V:4] A2A2A4 | 
[V:5] F,8 | 
[V:6] D,4D,4 | 
[V:1] G8- | 
[V:2] e3defg2- | 
[V:3] c8- | 
[V:4] G4G2c2- | 
[V:5] C,8 | 
[V:6] E,4C,4- | 
[V:1] G8 | 
[V:2] gff4e2 | 
[V:3] c8- | 
[V:4] c2BAG4 | 
[V:5] z8 | 
[V:6] C,8 | 
[V:1] F8 |]  
[V:2] f8 |]  
[V:3] c8 |]  
[V:4] F8 |]  
[V:5] C,8 |]  
[V:6] F,,8 |]  



